icons/emacs/emacs-original.svg

<?xml version="1.0" encoding="UTF-8"?>
<svg xmlns="http://www.w3.org/2000/svg" xmlns:xlink="http://www.w3.org/1999/xlink" width="128px" height="128px" viewBox="0 0 128 128" version="1.1">
<g id="surface1">
<path style=" stroke:none;fill-rule:nonzero;fill:rgb(25.882353%,12.156863%,37.254902%);fill-opacity:1;" d="M 60.613281 8.011719 C 50.863281 8.601562 41.425781 11.726562 33.273438 17.074219 C 29.835938 19.335938 27.425781 21.3125 24.363281 24.363281 C 19.710938 29.023438 16.351562 33.726562 13.5 39.5625 C 5.5625 55.875 6.125 75.5 14.988281 91.3125 C 17.585938 95.9375 20.5 99.773438 24.363281 103.636719 C 27.425781 106.6875 29.835938 108.675781 33.261719 110.914062 C 51.925781 123.164062 76.074219 123.164062 94.738281 110.914062 C 98.164062 108.675781 100.574219 106.6875 103.636719 103.636719 C 107.5 99.773438 110.414062 95.9375 113.011719 91.3125 C 121.875 75.5 122.4375 55.875 114.5 39.5625 C 111.648438 33.726562 108.289062 29.023438 103.636719 24.363281 C 100.574219 21.3125 98.164062 19.335938 94.726562 17.074219 C 84.648438 10.460938 72.675781 7.273438 60.613281 8.011719 Z M 87.9375 29.925781 C 92.511719 31.113281 95.488281 34.449219 95.710938 38.625 C 95.898438 41.960938 94.148438 44.585938 91.085938 45.574219 C 90.238281 45.851562 89.824219 45.898438 88.6875 45.898438 C 87.023438 45.914062 86.136719 45.789062 82.023438 45 C 78.148438 44.25 76.613281 44.039062 73.5625 43.875 C 66.101562 43.476562 62.101562 44.136719 61.175781 45.898438 C 60.699219 46.8125 61.261719 48.101562 62.824219 49.75 C 63.664062 50.613281 66.023438 52.488281 74 58.585938 C 79.574219 62.835938 84.050781 66.324219 83.960938 66.335938 C 83.886719 66.363281 79.261719 66.539062 73.6875 66.75 C 63.460938 67.136719 62.449219 67.210938 60.136719 67.761719 C 55.851562 68.773438 51.773438 70.6875 50.101562 72.476562 C 47.875 74.851562 48.550781 77.210938 52.125 79.613281 C 55.625 81.949219 61.4375 83.914062 71.8125 86.25 C 81.539062 88.4375 85.875 89.851562 88.761719 91.726562 C 89.75 92.375 90.3125 92.9375 90.574219 93.585938 C 91.261719 95.199219 88.738281 96.761719 83.976562 97.6875 C 80.789062 98.300781 78.6875 98.4375 72.25 98.4375 C 61.914062 98.425781 51.636719 97.601562 45.789062 96.300781 C 43.023438 95.6875 43.085938 95.636719 46.5 95.710938 C 53.175781 95.863281 69.824219 95.125 72.550781 94.5625 C 74.125 94.238281 74.613281 93.699219 73.886719 93.085938 C 73.085938 92.414062 71.789062 92.101562 68.9375 91.875 C 63.386719 91.4375 57.210938 90.023438 51.789062 87.925781 C 43.636719 84.789062 37.351562 80.3125 34 75.273438 C 30.398438 69.863281 32.4375 65.25 39.699219 62.335938 C 44.488281 60.414062 51.460938 59.335938 57.875 59.550781 C 62.710938 59.699219 65.949219 60.261719 69.625 61.585938 C 69.726562 61.625 69.113281 61.238281 68.25 60.726562 C 57.925781 54.601562 52.0625 49.226562 48.9375 43.011719 C 48.3125 41.761719 47.875 40.289062 47.875 39.4375 C 47.875 38 48.675781 36.789062 50.050781 36.136719 C 51.414062 35.488281 52.523438 35.3125 55.1875 35.3125 C 57.824219 35.324219 58.425781 35.386719 63.375 36.1875 C 67.886719 36.914062 70.773438 37.324219 73 37.550781 C 77.773438 38.050781 82.601562 38.113281 83.960938 37.699219 C 84.75 37.449219 85.25 36.914062 85.25 36.300781 C 85.25 34.636719 80.289062 32.761719 71.375 31.0625 C 67.835938 30.386719 67.460938 30.273438 68.625 30.25 C 69.074219 30.238281 72.386719 30.074219 76 29.875 C 83.9375 29.4375 86.113281 29.449219 87.9375 29.925781 Z M 87.9375 29.925781 "/>
</g>
</svg>

<svg xmlns="http://www.w3.org/2000/svg" viewBox="0 0 128 128"><path d="M60.613 8.012a56.04 56.04 0 00-27.34 9.062c-3.437 2.262-5.847 4.238-8.91 7.29-4.652 4.66-8.011 9.363-10.863 15.198-7.938 16.313-7.375 35.938 1.488 51.75 2.598 4.626 5.512 8.461 9.375 12.325 3.063 3.05 5.473 5.039 8.899 7.277a56.014 56.014 0 0061.476 0c3.426-2.238 5.836-4.227 8.899-7.277 3.863-3.864 6.777-7.7 9.375-12.325 8.863-15.812 9.425-35.437 1.488-51.75-2.852-5.835-6.21-10.539-10.863-15.199-3.063-3.05-5.473-5.027-8.91-7.289a55.965 55.965 0 00-34.114-9.062zm27.325 21.914c4.574 1.187 7.55 4.523 7.773 8.699.187 3.336-1.563 5.96-4.625 6.95-.848.277-1.262.323-2.398.323-1.665.016-2.551-.109-6.665-.898-3.875-.75-5.41-.96-8.46-1.125-7.461-.398-11.461.262-12.387 2.023-.477.914.086 2.204 1.648 3.852.84.863 3.2 2.738 11.176 8.836 5.574 4.25 10.05 7.738 9.96 7.75-.073.027-4.698.203-10.272.414-10.227.387-11.239.46-13.551 1.012-4.285 1.011-8.364 2.925-10.035 4.715-2.227 2.375-1.551 4.734 2.023 7.136 3.5 2.336 9.313 4.301 19.688 6.637 9.726 2.188 14.062 3.602 16.949 5.477.988.648 1.55 1.21 1.812 1.859.688 1.613-1.836 3.176-6.597 4.102-3.188.613-5.29.75-11.727.75-10.336-.012-20.613-.836-26.46-2.137-2.767-.614-2.704-.664.71-.59 6.676.152 23.324-.586 26.05-1.148 1.575-.325 2.063-.864 1.337-1.477-.801-.672-2.098-.984-4.95-1.211-5.55-.438-11.726-1.852-17.148-3.95C43.637 84.79 37.352 80.314 34 75.274c-3.602-5.41-1.563-10.023 5.7-12.937 4.788-1.922 11.76-3 18.175-2.785 4.836.148 8.074.71 11.75 2.035.102.039-.512-.348-1.375-.86-10.324-6.124-16.188-11.5-19.313-17.714-.624-1.25-1.062-2.723-1.062-3.575 0-1.437.8-2.648 2.176-3.3 1.363-.649 2.472-.825 5.136-.825 2.637.012 3.239.075 8.188.876 4.512.726 7.398 1.136 9.625 1.363 4.773.5 9.602.562 10.96.148.79-.25 1.29-.785 1.29-1.398 0-1.664-4.96-3.54-13.875-5.239-3.54-.675-3.914-.789-2.75-.812.45-.012 3.762-.176 7.375-.375 7.938-.438 10.113-.426 11.938.05zm0 0" fill="#421f5f"/></svg>
